X: 13608
T: Fogarty's Kate
R: jig
M: 6/8
K: Dmajor
A|:DFA dcd|faf dAF|DFA =cB=c|GEG =cGE|
DFA dcd|faf dfa|gec Ace|edc d2:|
A|:dcd faf|dfa afd|=cB=c ege|=ceg gec|
dfa gec|dcA GFG|Add faf|gec d2:|

